file/smithsonian.svg

<svg clip-rule="evenodd" fill-rule="evenodd" stroke-linejoin="round" stroke-miterlimit="1.41421" viewBox="0 0 560 400" xmlns="http://www.w3.org/2000/svg"><g fill-rule="nonzero" transform="matrix(1.32777 0 0 1.32777 176.035 80.8097)"><path d="m63.896 156.889c-1.083.284-2.905.742-4.244.998v.569c1.965.171 2.022.141 2.022 1.88v14.209c0 1.595-.145 1.738-1.938 1.909v.654h6.037v-.654c-1.737-.171-1.879-.314-1.879-1.909v-7.261c.711-.827 1.766-1.253 2.934-1.311 2.078 0 2.818 1.34 2.818 3.389v5.183c0 1.595-.14 1.738-1.937 1.909v.654h6.039v-.682c-1.735-.144-1.881-.286-1.881-1.881v-6.037c0-2.536-1.48-4.159-3.93-4.101-1.537.056-3.074.968-4.041 1.992zm-17.115.789c-.798 0-1.48.684-1.48 1.567 0 .854.682 1.535 1.48 1.535.826 0 1.479-.679 1.481-1.531 0-.88-.655-1.561-1.481-1.571zm71.84 0c-.795 0-1.482.684-1.482 1.567 0 .854.686 1.535 1.482 1.535.824 0 1.476-.679 1.478-1.531 0-.88-.648-1.561-1.478-1.571zm-105.019.496c-3.73 0-5.864 2.419-5.864 5.239 0 3.415 3.843 4.757 4.783 5.212 1.823.883 3.674 1.878 3.674 4.299 0 2.22-1.367 3.676-3.533 3.676-3.017 0-4.47-3.163-4.924-4.5l-.713.111c.285 1.538.598 3.559.825 4.299.341.145.855.371 1.566.6.713.229 1.679.427 2.705.427 3.618 0 6.324-2.42 6.324-5.724 0-3.529-2.991-4.699-4.871-5.522-2.164-.97-3.674-1.912-3.674-4.019 0-1.681 1.056-3.158 3.077-3.158 2.592 0 3.39 1.993 3.873 3.672l.711-.086c-.226-1.708-.398-2.847-.512-3.844-.313-.056-.711-.2-1.082-.313-.599-.2-1.566-.369-2.365-.369zm41.208 2.903-1.849 1.878v1.795h-1.367l-.827.797.116.283h2.078v8.174c0 2.279.996 3.447 2.82 3.447.198 0 .569-.086.854-.228l2.334-1.168-.288-.627c-.541.313-1.166.541-1.679.541-.768 0-1.823-.398-1.823-2.619l.002-.01v-7.51h3.104c.343-.312.427-.767.199-1.08h-3.303v-3.674h-.371zm-30.384 3.275c-1.452.513-2.849.858-4.159 1.143v.511c1.88.228 1.936.256 1.936 1.963h-.002v6.58c0 1.595-.141 1.735-2.106 1.906v.657h6.182v-.657c-1.711-.171-1.854-.311-1.854-1.906v-7.205c.914-.74 2.053-1.338 3.192-1.338 1.963 0 2.56 1.311 2.56 2.961v5.582c0 1.595-.14 1.735-1.992 1.906v.657h6.035v-.657c-1.68-.171-1.822-.311-1.822-1.906v-6.381c0-.256-.029-.482-.057-.795 1.054-.912 2.164-1.367 3.162-1.367 2.107 0 2.647 1.423 2.647 3.074v5.469c0 1.595-.141 1.735-2.022 1.906v.657h6.039v-.657c-1.652-.171-1.794-.311-1.794-1.906v-6.351c0-2.249-1.279-3.788-3.586-3.788-.939 0-1.654.314-2.508.799-.455.256-1.339.825-2.135 1.424-.513-1.397-1.795-2.223-3.219-2.223-.996 0-1.708.312-2.56.825-.798.484-1.396.884-1.938 1.253v-2.136zm23.464.002c-1.452.513-2.848.854-4.158 1.141v.511c1.881.229 1.938.258 1.938 1.965v6.578c0 1.594-.143 1.738-2.022 1.908v.655h6.291v-.655c-1.907-.17-2.049-.314-2.049-1.908v-.006zm56.309 0c-1.452.513-2.846.856-4.156 1.139v.513c1.879.228 1.937.258 1.937 1.965v6.578c0 1.595-.141 1.737-2.105 1.908v.655h6.139v-.655c-1.679-.171-1.823-.313-1.823-1.908v-7.205c.854-.74 1.994-1.338 3.106-1.338 2.107 0 2.648 1.424 2.648 3.076v5.467c0 1.595-.142 1.737-2.021 1.908v.655h6.037v-.655c-1.652-.171-1.793-.313-1.793-1.908v-6.351c0-2.249-1.283-3.786-3.619-3.786-.884 0-1.595.312-2.45.825-.74.457-1.366.854-1.908 1.252l.008-.016zm15.541 0c-1.455.513-2.847.854-4.158 1.141v.511c1.879.229 1.937.258 1.937 1.965v6.578c0 1.594-.142 1.738-2.021 1.908v.655h6.293v-.655c-1.908-.17-2.049-.314-2.049-1.908l-.002-.006zm19.99 0c-1.452.513-2.844.856-4.156 1.139v.513c1.879.228 1.937.258 1.937 1.965v6.578c0 1.595-.143 1.737-2.107 1.908v.655h6.15v-.655c-1.679-.171-1.824-.313-1.824-1.908v-7.205c.857-.74 1.996-1.338 3.105-1.338 2.107 0 2.649 1.424 2.649 3.076v5.467c0 1.595-.143 1.737-2.022 1.908v.655h6.037v-.655c-1.653-.171-1.793-.313-1.793-1.908v-6.351c0-2.249-1.283-3.786-3.619-3.786-.881 0-1.592.312-2.445.825-.74.457-1.37.854-1.912 1.252v-.016zm-59.66.051c-2.48 0-4.244 1.681-4.244 3.73 0 1.883 1.564 2.849 3.416 3.674 1.566.684 2.221 1.51 2.221 2.678 0 1.395-.997 2.107-2.022 2.107-1.678 0-2.959-1.823-3.416-3.475v.02l-.654.15c0 1.11.172 2.676.342 3.104.541.455 1.851 1.055 3.305 1.055 2.162 0 4.583-1.283 4.583-3.903 0-1.906-1.366-3.017-3.445-3.871-1.253-.512-2.478-1.312-2.478-2.48 0-.94.598-1.936 1.879-1.936 1.081 0 1.993.656 2.849 2.537l.684-.172c-.056-.485-.343-2.08-.629-2.736-.568-.255-1.367-.482-2.391-.482zm11.732.002c-2.591 0-6.292 2.079-6.293 6.861 0 2.96 2.304 6.18 6.32 6.18 2.877 0 6.18-2.278 6.18-6.719 0-3.56-2.591-6.322-6.207-6.322zm37.014 0c-2.02.368-3.699 1.453-4.385 1.965-.626.455-.969.856-.969 1.224 0 .514.771.969 1.227.969.313 0 .569-.198.654-.541.313-1.197.912-2.393 2.305-2.393 1.511 0 2.336.939 2.336 2.705v.969c-.854.597-3.186 1.425-4.582 1.994-1.481.597-2.166 1.564-2.166 2.875 0 1.567 1.337 3.276 3.418 3.276.598 0 2.136-1.082 3.33-1.852.17.713.597 1.682 1.566 1.852l.018-.016 2.861-1.381-.258-.627c-.512.257-.995.371-1.224.371-.427 0-.797-.482-.797-1.537v-6.406c0-1.027-.143-2.024-1.082-2.764-.57-.426-1.452-.683-2.252-.683zm-37.355.855c2.591 0 3.957 2.935 3.957 6.096 0 3.838-1.509 5.238-3.273 5.238-2.478 0-4.045-2.761-4.045-6.377 0-2.991 1.451-4.957 3.361-4.957zm38.549 4.942v4.558c-.77.598-1.822 1.11-2.477 1.11-.856 0-1.879-.71-1.879-2.221 0-1.026.483-1.595 1.481-2.137.538-.285 2.249-1.052 2.875-1.31z" fill="#231f20" transform="translate(-.001297)"/><path d="m107.111 146.879c38.42-15.92 56.67-59.966 40.75-98.381-15.91-38.425-59.955-56.661-98.376-40.75-38.42 15.917-56.662 59.962-40.745 98.381 15.911 38.42 59.955 56.66 98.373 40.75" fill="#1891cb"/><path d="m130.761 94.928c-5.636-9.68-14.536-9.792-15.628-9.762v-.036l37.533-7.821-37.533-7.814v-.012c.392-.352 7.685-6.792 18.622-6.957 8.267-.118 15.412-10.228 10.85-17.995 0 0-1.35 12.206-16.762 8.137-10.832-2.865-17.208 3.358-17.96 4.151 0-.005 0-.012-.012-.018l21.02-32.074-32.074 21.013c-.005-.006-.011-.006-.017-.006.022-.476.61-10.222 8.26-18.095 5.754-5.93 3.657-18.125-5.055-20.391 0 0 7.668 9.582-6.106 17.602-9.675 5.637-9.781 14.537-9.758 15.63h-.023l-7.82-37.535-7.82 37.529c0 .006-.005.006-.012.006-.311-.341-6.793-7.651-6.963-18.63-.117-8.26-10.228-15.412-17.989-10.844 0 0 12.2 1.351 8.131 16.756-2.866 10.862 3.392 17.238 4.156 17.966 0 0 0 .006-.012.006l-32.067-21.012 17.119 26.138 3.887 5.936s0 .005-.006.011c-.311-.018-10.163-.552-18.1-8.26-5.93-5.748-18.13-3.652-20.396 5.061 0 0 9.588-7.668 17.607 6.1 5.653 9.711 14.583 9.787 15.646 9.764 0 .006-.012.018-.012.023l-37.527 7.814 37.528 7.821v.006c-.247.229-7.58 6.804-18.634 6.968-8.261.124-15.406 10.229-10.85 17.995 0 0 1.362-12.206 16.767-8.138 10.879 2.878 17.25-3.41 17.966-4.156.006.006.012.018.024.023l-21.018 32.071 32.067-21.01c-.012.335-.552 10.169-8.255 18.107-5.754 5.923-3.658 18.123 5.049 20.39 0 0-7.662-9.581 6.106-17.603 9.711-5.652 9.793-14.584 9.764-15.646.012.005.024.005.029.011l7.82 37.529 7.82-37.529v-.006c.282.312 6.799 7.633 6.964 18.642.123 8.261 10.227 15.406 17.994 10.845 0 0-12.205-1.351-8.132-16.763 2.865-10.851-3.387-17.226-4.156-17.966.013-.006.019-.012.029-.018l32.069 21.013-11.091-16.933-9.923-15.142c.44.023 10.21.599 18.095 8.262 5.93 5.747 18.131 3.657 20.397-5.056-.02.02-9.6 7.68-17.62-6.081" fill="#f7ce17"/></g></svg>

<?xml version="1.0" encoding="UTF-8" standalone="no"?>
<!DOCTYPE svg PUBLIC "-//W3C//DTD SVG 1.1//EN" "http://www.w3.org/Graphics/SVG/1.1/DTD/svg11.dtd">
<svg width="100%" height="100%" viewBox="0 0 560 400" version="1.1" xmlns="http://www.w3.org/2000/svg" xmlns:xlink="http://www.w3.org/1999/xlink" xml:space="preserve" xmlns:serif="http://www.serif.com/" style="fill-rule:evenodd;clip-rule:evenodd;stroke-linejoin:round;stroke-miterlimit:1.41421;">
    <g transform="matrix(1.32777,0,0,1.32777,176.035,80.8097)">
        <g transform="matrix(1,0,0,1,-0.00129699,0)">
            <path d="M63.896,156.889C62.813,157.173 60.991,157.631 59.652,157.887L59.652,158.456C61.617,158.627 61.674,158.597 61.674,160.336L61.674,174.545C61.674,176.14 61.529,176.283 59.736,176.454L59.736,177.108L65.773,177.108L65.773,176.454C64.036,176.283 63.894,176.14 63.894,174.545L63.894,167.284C64.605,166.457 65.66,166.031 66.828,165.973C68.906,165.973 69.646,167.313 69.646,169.362L69.646,174.545C69.646,176.14 69.506,176.283 67.709,176.454L67.709,177.108L73.748,177.108L73.748,176.426C72.013,176.282 71.867,176.14 71.867,174.545L71.867,168.508C71.867,165.972 70.387,164.349 67.937,164.407C66.4,164.463 64.863,165.375 63.896,166.399L63.896,156.889L63.896,156.889ZM46.781,157.678C45.983,157.678 45.301,158.362 45.301,159.245C45.301,160.099 45.983,160.78 46.781,160.78C47.607,160.78 48.26,160.101 48.262,159.249C48.262,158.369 47.607,157.688 46.781,157.678L46.781,157.678ZM118.621,157.678C117.826,157.678 117.139,158.362 117.139,159.245C117.139,160.099 117.825,160.78 118.621,160.78C119.445,160.78 120.097,160.101 120.099,159.249C120.099,158.369 119.451,157.688 118.621,157.678L118.621,157.678ZM13.602,158.174C9.872,158.174 7.738,160.593 7.738,163.413C7.738,166.828 11.581,168.17 12.521,168.625C14.344,169.508 16.195,170.503 16.195,172.924C16.195,175.144 14.828,176.6 12.662,176.6C9.645,176.6 8.192,173.437 7.738,172.1L7.025,172.211C7.31,173.749 7.623,175.77 7.85,176.51C8.191,176.655 8.705,176.881 9.416,177.11C10.129,177.339 11.095,177.537 12.121,177.537C15.739,177.537 18.445,175.117 18.445,171.813C18.445,168.284 15.454,167.114 13.574,166.291C11.41,165.321 9.9,164.379 9.9,162.272C9.9,160.591 10.956,159.114 12.977,159.114C15.569,159.114 16.367,161.107 16.85,162.786L17.561,162.7C17.335,160.992 17.163,159.853 17.049,158.856C16.736,158.8 16.338,158.656 15.967,158.543C15.368,158.343 14.401,158.174 13.602,158.174L13.602,158.174ZM54.81,161.077L52.961,162.955L52.961,164.75L51.594,164.75L50.767,165.547L50.883,165.83L52.961,165.83L52.961,174.004C52.961,176.283 53.957,177.451 55.781,177.451C55.979,177.451 56.35,177.365 56.635,177.223L58.969,176.055L58.681,175.428C58.14,175.741 57.515,175.969 57.002,175.969C56.234,175.969 55.179,175.571 55.179,173.35L55.181,173.34L55.181,165.83L58.285,165.83C58.628,165.518 58.712,165.063 58.484,164.75L55.181,164.75L55.181,161.076L54.81,161.076L54.81,161.077ZM24.426,164.352C22.974,164.865 21.577,165.21 20.267,165.495L20.267,166.006C22.147,166.234 22.203,166.262 22.203,167.969L22.201,167.969L22.201,174.549C22.201,176.144 22.06,176.284 20.095,176.455L20.095,177.112L26.277,177.112L26.277,176.455C24.566,176.284 24.423,176.144 24.423,174.549L24.423,167.344C25.337,166.604 26.476,166.006 27.615,166.006C29.578,166.006 30.175,167.317 30.175,168.967L30.175,174.549C30.175,176.144 30.035,176.284 28.183,176.455L28.183,177.112L34.218,177.112L34.218,176.455C32.538,176.284 32.396,176.144 32.396,174.549L32.396,168.168C32.396,167.912 32.367,167.686 32.339,167.373C33.393,166.461 34.503,166.006 35.501,166.006C37.608,166.006 38.148,167.429 38.148,169.08L38.148,174.549C38.148,176.144 38.007,176.284 36.126,176.455L36.126,177.112L42.165,177.112L42.165,176.455C40.513,176.284 40.371,176.144 40.371,174.549L40.371,168.198C40.371,165.949 39.092,164.41 36.785,164.41C35.846,164.41 35.131,164.724 34.277,165.209C33.822,165.465 32.938,166.034 32.142,166.633C31.629,165.236 30.347,164.41 28.923,164.41C27.927,164.41 27.215,164.722 26.363,165.235C25.565,165.719 24.967,166.119 24.425,166.488L24.425,164.352L24.426,164.352ZM47.89,164.354C46.438,164.867 45.042,165.208 43.732,165.495L43.732,166.006C45.613,166.235 45.67,166.264 45.67,167.971L45.67,174.549C45.67,176.143 45.527,176.287 43.648,176.457L43.648,177.112L49.939,177.112L49.939,176.457C48.032,176.287 47.89,176.143 47.89,174.549L47.89,174.543L47.89,164.354L47.89,164.354ZM104.199,164.354C102.747,164.867 101.353,165.21 100.043,165.493L100.043,166.006C101.922,166.234 101.98,166.264 101.98,167.971L101.98,174.549C101.98,176.144 101.839,176.286 99.875,176.457L99.875,177.112L106.014,177.112L106.014,176.457C104.335,176.286 104.191,176.144 104.191,174.549L104.191,167.344C105.045,166.604 106.185,166.006 107.297,166.006C109.404,166.006 109.945,167.43 109.945,169.082L109.945,174.549C109.945,176.144 109.803,176.286 107.924,176.457L107.924,177.112L113.961,177.112L113.961,176.457C112.309,176.286 112.168,176.144 112.168,174.549L112.168,168.198C112.168,165.949 110.885,164.412 108.549,164.412C107.665,164.412 106.954,164.724 106.099,165.237C105.359,165.694 104.733,166.091 104.191,166.489L104.199,166.473L104.199,164.354L104.199,164.354ZM119.74,164.354C118.285,164.867 116.893,165.208 115.582,165.495L115.582,166.006C117.461,166.235 117.519,166.264 117.519,167.971L117.519,174.549C117.519,176.143 117.377,176.287 115.498,176.457L115.498,177.112L121.791,177.112L121.791,176.457C119.883,176.287 119.742,176.143 119.742,174.549L119.74,174.543L119.74,164.354L119.74,164.354ZM139.73,164.354C138.278,164.867 136.886,165.21 135.574,165.493L135.574,166.006C137.453,166.234 137.511,166.264 137.511,167.971L137.511,174.549C137.511,176.144 137.368,176.286 135.404,176.457L135.404,177.112L141.554,177.112L141.554,176.457C139.875,176.286 139.73,176.144 139.73,174.549L139.73,167.344C140.587,166.604 141.726,166.006 142.835,166.006C144.942,166.006 145.484,167.43 145.484,169.082L145.484,174.549C145.484,176.144 145.341,176.286 143.462,176.457L143.462,177.112L149.499,177.112L149.499,176.457C147.846,176.286 147.706,176.144 147.706,174.549L147.706,168.198C147.706,165.949 146.423,164.412 144.087,164.412C143.206,164.412 142.495,164.724 141.642,165.237C140.902,165.694 140.272,166.091 139.73,166.489L139.73,166.473L139.73,164.354L139.73,164.354ZM80.07,164.405C77.59,164.405 75.826,166.086 75.826,168.135C75.826,170.018 77.39,170.984 79.242,171.809C80.808,172.493 81.463,173.319 81.463,174.487C81.463,175.882 80.466,176.594 79.441,176.594C77.763,176.594 76.482,174.771 76.025,173.119L76.025,173.139L75.371,173.289C75.371,174.399 75.543,175.965 75.713,176.393C76.254,176.848 77.564,177.448 79.018,177.448C81.18,177.448 83.601,176.165 83.601,173.545C83.601,171.639 82.235,170.528 80.156,169.674C78.903,169.162 77.678,168.362 77.678,167.194C77.678,166.254 78.276,165.258 79.557,165.258C80.638,165.258 81.55,165.914 82.406,167.795L83.09,167.623C83.034,167.138 82.747,165.543 82.461,164.887C81.893,164.632 81.094,164.405 80.07,164.405L80.07,164.405ZM91.802,164.407C89.211,164.407 85.51,166.486 85.509,171.268C85.509,174.228 87.813,177.448 91.829,177.448C94.706,177.448 98.009,175.17 98.009,170.729C98.009,167.169 95.418,164.407 91.802,164.407L91.802,164.407ZM128.816,164.407C126.796,164.775 125.117,165.86 124.431,166.372C123.805,166.827 123.462,167.228 123.462,167.596C123.462,168.11 124.233,168.565 124.689,168.565C125.002,168.565 125.258,168.367 125.343,168.024C125.656,166.827 126.255,165.631 127.648,165.631C129.159,165.631 129.984,166.57 129.984,168.336L129.984,169.305C129.13,169.902 126.798,170.73 125.402,171.299C123.921,171.896 123.236,172.863 123.236,174.174C123.236,175.741 124.573,177.45 126.654,177.45C127.252,177.45 128.79,176.368 129.984,175.598C130.154,176.311 130.581,177.28 131.55,177.45L131.568,177.434L134.429,176.053L134.171,175.426C133.659,175.683 133.176,175.797 132.947,175.797C132.52,175.797 132.15,175.315 132.15,174.26L132.15,167.854C132.15,166.827 132.007,165.83 131.068,165.09C130.498,164.664 129.616,164.407 128.816,164.407L128.816,164.407ZM91.461,165.262C94.052,165.262 95.418,168.197 95.418,171.358C95.418,175.196 93.909,176.596 92.145,176.596C89.667,176.596 88.1,173.835 88.1,170.219C88.1,167.228 89.551,165.262 91.461,165.262ZM130.01,170.204L130.01,174.762C129.24,175.36 128.188,175.872 127.533,175.872C126.677,175.872 125.654,175.162 125.654,173.651C125.654,172.625 126.137,172.056 127.135,171.514C127.673,171.229 129.384,170.462 130.01,170.204Z" style="fill:rgb(35,31,32);fill-rule:nonzero;"/>
        </g>
        <path d="M107.111,146.879C145.531,130.959 163.781,86.913 147.861,48.498C131.951,10.073 87.906,-8.163 49.485,7.748C11.065,23.665 -7.177,67.71 8.74,106.129C24.651,144.549 68.695,162.789 107.113,146.879" style="fill:rgb(24,145,203);fill-rule:nonzero;"/>
        <path d="M130.761,94.928C125.125,85.248 116.225,85.136 115.133,85.166L115.133,85.13L152.666,77.309L115.133,69.495L115.133,69.483C115.525,69.131 122.818,62.691 133.755,62.526C142.022,62.408 149.167,52.298 144.605,44.531C144.605,44.531 143.255,56.737 127.843,52.668C117.011,49.803 110.635,56.026 109.883,56.819C109.883,56.814 109.883,56.807 109.871,56.801L130.891,24.727L98.817,45.74C98.812,45.734 98.806,45.734 98.8,45.734C98.822,45.258 99.41,35.512 107.06,27.639C112.814,21.709 110.717,9.514 102.005,7.248C102.005,7.248 109.673,16.83 95.899,24.85C86.224,30.487 86.118,39.387 86.141,40.48L86.118,40.48L78.298,2.945L70.478,40.474C70.478,40.48 70.473,40.48 70.466,40.48C70.155,40.139 63.673,32.829 63.503,21.85C63.386,13.59 53.275,6.438 45.514,11.006C45.514,11.006 57.714,12.357 53.645,27.762C50.779,38.624 57.037,45 57.801,45.728C57.801,45.728 57.801,45.734 57.789,45.734L25.722,24.722L42.841,50.86L46.728,56.796C46.728,56.796 46.728,56.801 46.722,56.807C46.411,56.789 36.559,56.255 28.622,48.547C22.692,42.799 10.492,44.895 8.226,53.608C8.226,53.608 17.814,45.94 25.833,59.708C31.486,69.419 40.416,69.495 41.479,69.472C41.479,69.478 41.467,69.49 41.467,69.495L3.94,77.309L41.468,85.13L41.468,85.136C41.221,85.365 33.888,91.94 22.834,92.104C14.573,92.228 7.428,102.333 11.984,110.099C11.984,110.099 13.346,97.893 28.751,101.961C39.63,104.839 46.001,98.551 46.717,97.805C46.723,97.811 46.729,97.823 46.741,97.828L25.723,129.899L57.79,108.889C57.778,109.224 57.238,119.058 49.535,126.996C43.781,132.919 45.877,145.119 54.584,147.386C54.584,147.386 46.922,137.805 60.69,129.783C70.401,124.131 70.483,115.199 70.454,114.137C70.466,114.142 70.478,114.142 70.483,114.148L78.303,151.677L86.123,114.148L86.123,114.142C86.405,114.454 92.922,121.775 93.087,132.784C93.21,141.045 103.314,148.19 111.081,143.629C111.081,143.629 98.876,142.278 102.949,126.866C105.814,116.015 99.562,109.64 98.793,108.9C98.806,108.894 98.812,108.888 98.822,108.882L130.891,129.895L119.8,112.962L109.877,97.82C110.317,97.843 120.087,98.419 127.972,106.082C133.902,111.829 146.103,109.739 148.369,101.026C148.349,101.046 138.769,108.706 130.749,94.945" style="fill:rgb(247,206,23);fill-rule:nonzero;"/>
    </g>
</svg>
